X:8
T:Galliard: La Dona
C:Tylman Susato, Danserye, 1551
K:C major
M:6/4
L:1/8
"Dm"d2d2d2 "Dm"A2A2"Gm"d2 | "Am"c3Bcd "C"e4"F"f2 | "C"e3def "Gm"g4"Dm"f2 | "Em"e2"Dm"d4 "A"^c4z2 ::
"Dm"d2d2"C"e2 "F"f3efg | a2a2"C"g2 "F"f2ed"C"c2 | "Dm C"f4e2 "F"f4z2 ::
 "Dm"f2d2f2 "C"e2c2e2 | "Dm"d2"G"B2"Dm"d2 "Am"c2AB"F"cA | "Gm"d4"A"^c2 "D"d4z2 :| 

